X:11
T:Bonny Charlie
T:King William of Orange
R:Hornpipe
M:4/4
L:1/8
K:Em
B,2 |\
"Em" E2EF G2GA |     BcBA G2GA |      B2E2       E2G2 | "D"  FGAF D2D2 |
"Em" E2EF G2GA | "G" BcBA G2GA | "Am" B2E2 "Bm7" GFED | "Em" E4   e2  :|
B2 |\
"Em" efed     B2B2 |      efed     B4   | "D"  fgaf       d2g2 |      fgaf      d2ga |
"G"  b2gb "D" a2fa | "Em" g2eg "D" f2df | "Am" e2ef       gfed |      e2ef "Bm" g4   |
"Em" efed     B2B2 |      efed     B4   | "Am" dcBA "C"   cBAG | "D"  FGAF      D4   |
"Em" GFGA     BABd | "G"  edef     g3e  | "Am" dcBA "Bm7" BAGF | "Em" E4e2   |]
